!!!COM: Mozart, Wolfgang Amadeus
!!!OTL: Musikalische Würfelspiele, Kontre-Tänze
!!!SCA: K<sup>6</sup> Anh. C30.01 (K<sup>3</sup> Anh. 294d)
**kern	**kern
*staff2	*staff2
*clefF4	*clefG2
*M2/4	*M2/4
*MM110	*MM110
*>[A,A1,A,A2,B]	*>[A,A1,A,A2,B]
*>norep[A,A2,B]	*>norep[A,A2,B]
*>A	*>A
=7	=7
4C	8cc
.	8cc
4C	8ee
.	8ee
=152	=152
4C	8gg
.	16ccc
.	16gg
4r	8ee
.	8cc
=57	=57
8G	8ff
16GG	8ff
16AA	.
16BB	8dd
16C	.
16D	8dd
16BB	.
=71	=71
16C	8e 8cc
16CC	.
16EE	8e 8cc
16GG	.
16C	4e 4cc
16E	.
16G	.
16E	.
=77	=77
4D	8d
.	16f#
.	16a
4D	8dd
.	8ff#
=27	=27
4BB 4G	16aaQ
.	16gg
.	16ff#
.	16gg
4BB	16dd
.	16gg
.	16dd
.	16b
=78	=78
4C	8ee
.	16ee
.	16gg
4D	8ff#
.	16ff#
.	16aa

=172	=172
*>A1	*>A1
4GG	4g 4b 4gg
16G	4r
16F	.
16E	.
16D	.
=172:|!	=172:|!
*>A2	*>A2
4GG	4g 4b 4gg
16GG	4r
16AA	.
16BB	.
16C#	.
=155||	=155||
*>B	*>B
16D	4aa
16F#	.
16A	.
16F#	.
8D	16gg
.	16ff#
8C	16ee
.	16dd
=157	=157
4G	16gg
.	16aa
.	16bb
.	16ccc
4GG	4ddd
=26	=26
4C	8ee
.	8cc
4C	8gg
.	8ee
=126	=126
4GG	8b
.	8dd
16G	4g
16F	.
16E	.
16D	.
=128	=128
16C	8g
16G	.
16E	4cc
16G	.
16C	.
16G	.
16E	8ee
16G	.
=32	=32
4C	8ccc
.	8gg
4r	8ee
.	8cc
=17	=17
4GG	16dd
.	16ee
.	16ff
.	16ee
4GG	16ff
.	16dd
.	16cc
.	16b
=171	=171
4C	4cc
4CC	4c
==	==
*-	*-
